X:1
T:Crying Don't Even Come Close
M:3/4
L:1/4
K:E
 G/2G/2 G G| AG/2-F/2 E| C/2D/2 E F| F2 B,| F/2F/2 F F| G/2 F D F/2|\
E/2-C/2 B, z| z2 B,| G/2G/2 G B| A/2 G E/2 E| E3/2 E/2 F| F2 B,/2B,/2|\
 F/2F/2 F F| G/2F/2 E B,| E3| z2 E/2F/2| G2 z/2 F/2| G z G/2A/2| B2 B|\
 E2 G/2F/2| F E E| E F G|F/2-E/2 C z| c2 B| B/2G/2 z G| A G E| B,2 B,/2B,/2|\
 A G F| E3| z3| F F F|F/4-E/4 C/2- C F/2G/2| A c c| c z/2 A/2B/2 c/2|\
 B B B|B/4-A/4 G/2 e z/2 B/2|c/2-B/2 A z| e3/2B/2-c/2-B/2| B F G| A G E|\
D/2-C/2 B, B,/2B,/2| A G F| E3| e3/2B/2-c/2-B/2|B/2-F/2 G G| A G E|\
D/2-C/2 B, B,/2B,/2| A G F| E3-| E3|
